static/images/icon-3.svg

<?xml version="1.0" encoding="UTF-8"?>
<svg width="86px" height="86px" viewBox="0 0 86 86" version="1.1" xmlns="http://www.w3.org/2000/svg" xmlns:xlink="http://www.w3.org/1999/xlink">
    <title>Spotify_Icon_RGB_Green</title>
    <defs>
        <linearGradient x1="50%" y1="0%" x2="50%" y2="100%" id="linearGradient-1">
            <stop stop-color="#FF9A20" offset="0%"></stop>
            <stop stop-color="#FF7724" offset="100%"></stop>
        </linearGradient>
        <linearGradient x1="49.9999269%" y1="4.67461643e-15%" x2="49.9999269%" y2="99.9998538%" id="linearGradient-2">
            <stop stop-color="#444E58" offset="0%"></stop>
            <stop stop-color="#22312C" offset="100%"></stop>
        </linearGradient>
    </defs>
    <g id="Spotify_Icon_RGB_Green" stroke="none" stroke-width="1" fill="none" fill-rule="evenodd">
        <g id="icon-3" transform="translate(2.000000, 2.000000)" fill-rule="nonzero">
            <path d="M8.7253632,74.2186368 C2.3609664,67.85424 0,57.48624 0,41.472 C0,25.45776 2.3609664,15.08976 8.7253632,8.7253632 C15.08976,2.3609664 25.45776,0 41.472,0 C57.48624,0 67.85424,2.3609664 74.2186368,8.7253632 C80.5830336,15.08976 82.944,25.45776 82.944,41.472 C82.944,57.48624 80.5830336,67.85424 74.2186368,74.2186368 C67.85424,80.5830336 57.48624,82.944 41.472,82.944 C25.45776,82.944 15.08976,80.5830336 8.7253632,74.2186368 Z" id="Path" fill="url(#linearGradient-1)"></path>
            <circle id="Oval" fill="#FFFFFF" cx="41.472" cy="41.472" r="31.104"></circle>
            <path d="M41.472,74.304096 C23.3393871,74.304096 8.64,59.6046129 8.64,41.472 C8.64,23.3393871 23.3393871,8.64 41.472,8.64 C59.6046129,8.64 74.304096,23.3393871 74.304096,41.472 C74.3250817,50.1860336 70.8727762,58.5492357 64.711006,64.711006 C58.5492357,70.8727762 50.1860336,74.3250817 41.472,74.304096 L41.472,74.304096 Z M41.472,61.3082304 L43.9344,58.8458304 L41.472,49.4066304 L39.0096,58.8458304 L41.472,61.3082304 Z M38.3258304,61.1712 L37.0946304,65.8226304 L39.9674304,62.9498304 L38.3258304,61.1712 Z M44.6181696,61.1712 L42.9765696,62.8128 L45.8493696,65.6856 L44.6181696,61.1712 Z M46.9442304,69.6525696 L41.472,64.1810304 L35.9997696,69.6525696 C37.806814,69.9772242 39.6364536,70.1602574 41.472,70.2 C43.3110387,70.2280817 45.1471985,70.0443961 46.9442304,69.6525696 Z M41.472,12.7439865 C27.4573788,12.7304773 15.4823784,22.8404345 13.1454411,36.6588467 C10.8085037,50.4772588 18.7930998,63.962736 32.0328,68.5584 L38.1888,45.7130304 C36.7908132,44.6962936 35.9743669,43.0634011 35.9997696,41.3349696 C35.9998509,38.7615961 37.7929374,36.5359701 40.3073538,35.9882831 C42.8217703,35.440596 45.3780664,36.718845 46.4484189,39.059058 C47.5187714,41.399271 46.8139476,44.1690713 44.7552,45.7130304 L50.9112,68.5584 C64.1509002,63.962736 72.1354963,50.4772588 69.7985589,36.6588467 C67.4616216,22.8404345 55.4866212,12.7304773 41.472,12.7439865 L41.472,12.7439865 Z" id="Shape" fill="url(#linearGradient-2)"></path>
            <path d="M60.2133696,55.6989696 C59.5134493,56.5712769 58.2567392,56.7508069 57.3405696,56.1093696 C56.9001211,55.8187929 56.6038484,55.3547883 56.5255679,54.8329628 C56.4472875,54.3111372 56.5943699,53.7806237 56.9301696,53.3736 C61.8549587,46.2033897 61.8549587,36.7406103 56.9301696,29.5704 C56.5943699,29.1633763 56.4472875,28.6328628 56.5255679,28.1110372 C56.6038484,27.5892117 56.9001211,27.1252071 57.3405696,26.8346304 C58.2567392,26.1931931 59.5134493,26.3727231 60.2133696,27.2450304 C66.2323463,35.774763 66.2323463,47.169237 60.2133696,55.6989696 L60.2133696,55.6989696 Z M50.2274304,50.3637696 C49.4464491,49.4396247 49.5057706,48.0707197 50.3637696,47.2176 C51.7013097,45.6028217 52.4277624,43.5687543 52.4157696,41.472 C52.3902946,39.3817979 51.6681681,37.3598437 50.3637696,35.7264 C49.569821,34.8460307 49.5126167,33.5259819 50.2274304,32.5802304 C50.5649545,32.1409044 51.0786907,31.8723487 51.632074,31.8459527 C52.1854574,31.8195568 52.7224228,32.0379948 53.1002304,32.4432 C57.6596001,37.5990024 57.6596001,45.3449976 53.1002304,50.5008 C52.7067518,50.8753613 52.1771553,51.0726225 51.6345214,51.0467393 C51.0918874,51.020856 50.583471,50.7740824 50.2274304,50.3637696 L50.2274304,50.3637696 Z M32.7165696,50.3637696 C32.360529,50.7740824 31.8521126,51.020856 31.3094786,51.0467393 C30.7668447,51.0726225 30.2372482,50.8753613 29.8437696,50.5008 C25.2843999,45.3449976 25.2843999,37.5990024 29.8437696,32.4432 C30.2208559,32.0366479 30.7581567,31.8172565 31.3120346,31.843676 C31.8659125,31.8700956 32.3798917,32.1396322 32.7165696,32.5802304 C33.4975509,33.5043753 33.4382294,34.8732803 32.5802304,35.7264 C31.2758319,37.3598437 30.5537054,39.3817979 30.5282304,41.472 C30.5162376,43.5687543 31.2426903,45.6028217 32.5802304,47.2176 C33.4410949,48.0694525 33.5005153,49.4406393 32.7165696,50.3637696 L32.7165696,50.3637696 Z M25.6034304,56.1093696 C24.6872608,56.7508069 23.4305507,56.5712769 22.7306304,55.6989696 C16.7116537,47.169237 16.7116537,35.774763 22.7306304,27.2450304 C23.4305507,26.3727231 24.6872608,26.1931931 25.6034304,26.8346304 C26.0438789,27.1252071 26.3401516,27.5892117 26.4184321,28.1110372 C26.4967125,28.6328628 26.3496301,29.1633763 26.0138304,29.5704 C21.0890413,36.7406103 21.0890413,46.2033897 26.0138304,53.3736 C26.6461086,54.2448194 26.4635126,55.4620231 25.6034304,56.1093696 Z" id="Shape" fill="#FF9A20"></path>
        </g>
    </g>
</svg>

<svg width="86" height="86" viewBox="0 0 86 86" xmlns="http://www.w3.org/2000/svg"><defs><linearGradient x1="50%" y1="0%" x2="50%" y2="100%" id="a"><stop stop-color="#FF9A20" offset="0%"/><stop stop-color="#FF7724" offset="100%"/></linearGradient><linearGradient x1="50%" y1="0%" x2="50%" y2="100%" id="b"><stop stop-color="#444E58" offset="0%"/><stop stop-color="#22312C" offset="100%"/></linearGradient></defs><g transform="translate(2 2)" fill-rule="nonzero" fill="none"><path d="M8.725 74.219C2.361 67.854 0 57.486 0 41.472S2.361 15.09 8.725 8.725C15.09 2.361 25.458 0 41.472 0s26.382 2.361 32.747 8.725c6.364 6.365 8.725 16.733 8.725 32.747s-2.361 26.382-8.725 32.747c-6.365 6.364-16.733 8.725-32.747 8.725S15.09 80.583 8.725 74.219z" fill="url(#a)"/><circle fill="#FFF" cx="41.472" cy="41.472" r="31.104"/><path d="M41.472 74.304c-18.133 0-32.832-14.7-32.832-32.832 0-18.133 14.7-32.832 32.832-32.832 18.133 0 32.832 14.7 32.832 32.832a32.753 32.753 0 01-32.832 32.832zm0-12.996l2.462-2.462-2.462-9.44-2.462 9.44 2.462 2.462zm-3.146-.137l-1.231 4.652 2.872-2.873-1.641-1.779zm6.292 0l-1.641 1.642 2.872 2.873-1.23-4.515zm2.326 8.482l-5.472-5.472L36 69.653c1.807.324 3.636.507 5.472.547a23.97 23.97 0 005.472-.547zm-5.472-56.909c-14.015-.014-25.99 10.096-28.327 23.915-2.336 13.818 5.648 27.304 18.888 31.9l6.156-22.846a5.317 5.317 0 01-2.19-4.378 5.472 5.472 0 118.756 4.378l6.156 22.845c13.24-4.595 21.224-18.08 18.888-31.9C67.462 22.84 55.487 12.73 41.472 12.745z" fill="url(#b)"/><path d="M60.213 55.699a2.123 2.123 0 01-2.872.41 1.86 1.86 0 01-.41-2.735 21.022 21.022 0 000-23.804 1.86 1.86 0 01.41-2.735 2.123 2.123 0 012.872.41 24.676 24.676 0 010 28.454zm-9.986-5.335a2.323 2.323 0 01.137-3.146 8.927 8.927 0 002.052-5.746 9.391 9.391 0 00-2.052-5.746 2.472 2.472 0 01-.137-3.146 1.885 1.885 0 012.873-.137 13.63 13.63 0 010 18.058 1.988 1.988 0 01-2.873-.137zm-17.51 0a1.988 1.988 0 01-2.873.137 13.63 13.63 0 010-18.058 1.88 1.88 0 012.873.137 2.323 2.323 0 01-.137 3.146 9.391 9.391 0 00-2.052 5.746 8.927 8.927 0 002.052 5.746c.861.851.92 2.223.137 3.146zm-7.114 5.745a2.123 2.123 0 01-2.872-.41 24.676 24.676 0 010-28.454 2.123 2.123 0 012.872-.41 1.86 1.86 0 01.41 2.735 21.022 21.022 0 000 23.804c.633.87.45 2.088-.41 2.735z" fill="#FF9A20"/></g></svg>
